src/assets/images/toolbox/graphql.svg

<svg
  width="28"
  height="32"
  viewBox="0 0 28 32"
  fill="transparent"
  xmlns="http://www.w3.org/2000/svg">
  <path
    fill="#E535AB"
    fill-rule="evenodd"
    d="M16.688 3.66709L23.1571 7.46623C23.3438 7.26523 23.5582 7.09272 23.7934 6.95404C25.135 6.16952 26.8463 6.63531 27.6256 8C28.3969 9.36469 27.9389 11.1052 26.5972 11.8978C26.3637 12.0346 26.1121 12.1365 25.8501 12.2004V19.8015C26.1093 19.8655 26.3581 19.9667 26.5893 20.1021C27.9389 20.8947 28.3969 22.6353 27.6176 24C26.8463 25.3646 25.127 25.8304 23.7853 25.046C23.5254 24.8943 23.2912 24.7009 23.0919 24.4734L16.6622 28.2491C16.7563 28.5391 16.8042 28.8426 16.8038 29.148C16.8038 30.717 15.5506 32 14 32C12.4494 32 11.1962 30.7251 11.1962 29.148C11.1962 28.8677 11.2358 28.5969 11.3096 28.3411L4.84227 24.5431C4.65755 24.7401 4.44624 24.9094 4.21468 25.046C2.86499 25.8304 1.15371 25.3646 0.382402 24C-0.388799 22.6353 0.0691531 20.8947 1.41074 20.1021C1.64186 19.9667 1.89074 19.8654 2.1499 19.8014V12.2004C1.88788 12.1365 1.63626 12.0346 1.40276 11.8978C0.0610594 11.1134 -0.396893 9.36469 0.374418 8C1.14573 6.63531 2.86488 6.16952 4.20658 6.95404C4.44054 7.09198 4.65382 7.26338 4.83986 7.463L11.3108 3.66286C11.2345 3.39952 11.1959 3.12639 11.1962 2.85186C11.1962 1.27491 12.4494 0 14 0C15.5506 0 16.8038 1.2748 16.8038 2.85186C16.8038 3.13532 16.7634 3.40888 16.688 3.66709ZM16.014 4.83765L22.4985 8.64569C22.3953 9.01281 22.3657 9.39731 22.4114 9.77632C22.4572 10.1553 22.5775 10.5211 22.7651 10.8519C23.1598 11.5503 23.8028 12.0133 24.5165 12.1937V19.8043C24.4801 19.8133 24.4439 19.8232 24.4079 19.8336L15.9387 4.91385C15.9643 4.88893 15.9894 4.86346 16.014 4.83765ZM12.0631 4.91552L3.59397 19.8351C3.55735 19.8243 3.52052 19.8143 3.48351 19.805V12.1937C4.19718 12.0133 4.84019 11.5503 5.23492 10.8519C5.42287 10.5204 5.54324 10.1539 5.58885 9.77414C5.63446 9.39437 5.60437 9.00914 5.50038 8.64146L11.983 4.83453C12.0092 4.86201 12.0358 4.88915 12.0631 4.91552ZM14.7835 5.59136L23.2506 20.5076C23.0566 20.6958 22.8904 20.9115 22.757 21.148C22.6239 21.3831 22.5244 21.6363 22.4614 21.8998H5.53877C5.47574 21.6362 5.37616 21.3831 5.24302 21.148C5.10914 20.9131 4.94321 20.6988 4.75017 20.5112L13.219 5.59202C13.4729 5.66638 13.7358 5.70399 14 5.70372C14.272 5.70372 14.5348 5.66456 14.7835 5.59136ZM16.0735 27.2268L22.5159 23.4434C22.4966 23.3817 22.4794 23.3193 22.4642 23.2563H5.53516C5.52618 23.2933 5.51648 23.3301 5.50606 23.3667L11.98 27.1686C12.2414 26.8921 12.5551 26.6722 12.9023 26.5223C13.2494 26.3724 13.6228 26.2955 14 26.2962C14.3903 26.2955 14.7765 26.3779 15.1336 26.5382C15.4907 26.6985 15.8109 26.933 16.0735 27.2268Z"
  />
</svg>

<svg xmlns="http://www.w3.org/2000/svg" width="28" height="32" fill="transparent" xmlns:v="https://vecta.io/nano">
  <path fill="#e535ab" fill-rule="evenodd"
    d="M16.688 3.667l6.469 3.799a2.83 2.83 0 0 1 .636-.512c1.342-.785 3.053-.319 3.832 1.046.771 1.365.313 3.105-1.028 3.898a2.78 2.78 0 0 1-.747.303v7.601a2.78 2.78 0 0 1 .739.301c1.35.793 1.808 2.533 1.028 3.898-.771 1.365-2.491 1.83-3.832 1.046-.26-.152-.494-.345-.693-.573l-6.43 3.776a2.9 2.9 0 0 1 .142.899C16.804 30.717 15.551 32 14 32s-2.804-1.275-2.804-2.852c0-.28.04-.551.113-.807l-6.467-3.798c-.185.197-.396.366-.628.503A2.78 2.78 0 0 1 .382 24c-.771-1.365-.313-3.105 1.028-3.898a2.78 2.78 0 0 1 .739-.301V12.2a2.78 2.78 0 0 1-.747-.303C.061 11.113-.397 9.365.374 8s2.49-1.83 3.832-1.046a2.83 2.83 0 0 1 .633.509l6.471-3.8c-.076-.263-.115-.536-.115-.811C11.196 1.275 12.449 0 14 0s2.804 1.275 2.804 2.852c0 .283-.04.557-.116.815zm-.674 1.171l6.485 3.808a2.9 2.9 0 0 0-.087 1.131 2.88 2.88 0 0 0 .354 1.076c.395.698 1.038 1.161 1.751 1.342v7.611l-.109.029-8.469-14.92.075-.076zm-3.951.078l-8.469 14.92-.11-.03v-7.611c.714-.18 1.357-.643 1.751-1.342a2.88 2.88 0 0 0 .354-1.078c.046-.38.016-.765-.088-1.133l6.483-3.807.08.081zm2.72.676l8.467 14.916c-.194.188-.36.404-.494.64a2.89 2.89 0 0 0-.296.752H5.539a2.89 2.89 0 0 0-.296-.752 2.87 2.87 0 0 0-.493-.637l8.469-14.919a2.77 2.77 0 0 0 1.565-.001zm1.29 21.635l6.442-3.783-.052-.187H5.535l-.029.11 6.474 3.802c.261-.277.575-.496.922-.646s.72-.227 1.098-.226c.39-.001.777.082 1.134.242a2.8 2.8 0 0 1 .94.689z" />
</svg>
